images/parsiq.svg

<svg height="250" viewBox="0 0 250 250" width="250" xmlns="http://www.w3.org/2000/svg"><path d="m59.984375 132.21875v36.117188l-7.21875.003906v28.894531h28.894531l-.003906-7.226563h36.117188l.003906 59.992188c-63.398438-3.605469-114.171875-54.378906-117.777344-117.777344zm130.023437 0 59.992188.003906c-3.605469 63.398438-54.378906 114.171875-117.777344 117.777344l-.003906-59.992188h36.117188l.003906 7.226563h28.894531v-28.894531l-7.226563-.003906zm-72.230468.003906 57.785156-.003906v36.117188l-7.222656.003906-.003906 7.222656h-86.679688l.003906-7.222656-7.230468-.003906v-86.679688l7.230468.003906v-28.894531h-28.894531v28.894531l7.21875-.003906v36.117188l-59.984375.003906c3.605469-63.398438 54.378906-114.171875 117.777344-117.777344l-.003906 59.984375h50.5625l.003906-7.21875h28.894531v28.894531h-28.894531l-.003906-7.230468h-50.5625zm0 0" fill="#005cc7" fill-rule="evenodd"/></svg>

<svg xmlns="http://www.w3.org/2000/svg" xmlns:xlink="http://www.w3.org/1999/xlink" width="250px" height="250px" viewBox="0 0 250 250" version="1.1">
<g id="surface1">
<path style=" stroke:none;fill-rule:evenodd;fill:rgb(0%,36.078432%,78.039217%);fill-opacity:1;" d="M 59.984375 132.21875 L 59.984375 168.335938 L 52.765625 168.339844 L 52.765625 197.234375 L 81.660156 197.234375 L 81.65625 190.007812 L 117.773438 190.007812 L 117.777344 250 C 54.378906 246.394531 3.605469 195.621094 0 132.222656 Z M 190.007812 132.21875 L 250 132.222656 C 246.394531 195.621094 195.621094 246.394531 132.222656 250 L 132.21875 190.007812 L 168.335938 190.007812 L 168.339844 197.234375 L 197.234375 197.234375 L 197.234375 168.339844 L 190.007812 168.335938 Z M 117.777344 132.222656 L 175.5625 132.21875 L 175.5625 168.335938 L 168.339844 168.339844 L 168.335938 175.5625 L 81.65625 175.5625 L 81.660156 168.339844 L 74.429688 168.335938 L 74.429688 81.65625 L 81.660156 81.660156 L 81.660156 52.765625 L 52.765625 52.765625 L 52.765625 81.660156 L 59.984375 81.65625 L 59.984375 117.773438 L 0 117.777344 C 3.605469 54.378906 54.378906 3.605469 117.777344 0 L 117.773438 59.984375 L 168.335938 59.984375 L 168.339844 52.765625 L 197.234375 52.765625 L 197.234375 81.660156 L 168.339844 81.660156 L 168.335938 74.429688 L 117.773438 74.429688 Z M 117.777344 132.222656 "/>
</g>
</svg>
